X:469
%%etbk:tnset id:188,pos:1,rep:3,ant:
%%etbk:pldat 2013-10-30T15:04,2013-10-29T15:21,2013-10-28T18:10
T: Molly Malone        
R: song
M:3/4
L:1/8
K:Dmaj
A,2 | "D"D2D2D2 | D F3D2 | "A"E2E2E2 |E G3E2 | "D"F2>E2D2 | A2G2F2 | F2<E2D2 | "A"E4A,2 |
"D"D3D D2 | D F3D2 | "A"E2E2E2 | E G3E2 | "D"F A3G2 | F A3G2 | F3D "A"E2 | "D"D4|]


